X: 100375
M: C|
L: 1/8
K: Dm
uD2 !segno!|\
|: vc>ud |\
(_e>d)c>e (d>c)B>d | (c>B)A>c B2c>B | AfBf cfdf | (e>g)b>g f2c>d |
(_e>d)c>e d2A>B | (c>B)A>c B2A>G | (F>A)B>c (d>c)B>A |\
[1 (B>A)B>^c d2 :|[2 (d>^c)d>_e (d>=c)B>A "_D.C."!segno!|]


